X:244
T:Austrian Gallop. Le4.244, The
L:1/8
B:L.Leadley MS#4 c1850
Z:vmp.Mike Hicken 2016 www.village-music-project.org.uk
N: * This note is a crotchet in the original.
N: ** These quaver rests have benn added to give the correct repeats.
M:2/4
Q:1/4=120
C:D'Albert
K:F
"_pia"c(d/e/) fg|^g!>!a2f|^f!>!g2e|e!>!f2c|
c(d/e/) fg|^g a2f|"*"^f!>!a2e|fafz :|
|:c'(e'/d'/) .c'.b|(ba) .g.f|.f.e.d.c|gfef|
c'(e'/d'/) .c'.b|bagf|.f.e.d.c|faf"**"z :|
K:Bb
|: "_ffor" bz az|cz gz|gz fz|d3B|
gz fz|e3c|gz fz|d3b|
bz az|cz gz|gz fz|dz Bz|
gz fz|e3c|f!>!e2A|BdB"**"z :|
|:!p! .=B.c.=e.c|.=B.c.f.c|.=B.c._b.c|.a.c.f.c|
.=B.c.=e.c|.=B.c.f.c|.=B.c._b.c|!>!fz !>!fz|
!>!fz !>!fz|Bz Az|Cz Gz|Gz Fz|
D3B,|Gz Fz|E3C|Gz Fz|
D3B|Bz Az|Cz Gz|Gz Fz|
D3B,|Gz Fz|E3C|F!>!E2A,|B,DB, z :|

